X:3
T:Polska efter Anders Lindahl
M:3/4
R:Polska
O:Sundsjö, Jämtland
Z:ABC-transkribering av Linus Fredin
L:1/16
K:Dm
F2|:E2D^C C2D2 DEFG| ABAG A6=B^c|d2e2 f2gf efe^c|d^cdf efec A3G|
E2GG F2E2 DEFG|ABAG A6 =B^c|d2e2 f2a2 efe^c|1d4D6F2:|2d4D6 a2||
|:a2e2 fefa g2ge| f2fd e2e^c A2=Bc| d3e fefa g2g_b| _b2a2 a6 b2|
a2ae fefa g2ge| f2fd e2e^c A2=Bc| d3e fefg efe^c|d4 D8:|

